svg/s/FJ.svg

<svg width="16" height="12" viewBox="0 0 16 12" fill="none" xmlns="http://www.w3.org/2000/svg">
<g clip-path="url(#clip0_270_54996)">
<rect width="16" height="12" fill="white"/>
<path fill-rule="evenodd" clip-rule="evenodd" d="M0 0V12H16V0H0Z" fill="#67BFE5"/>
<g clip-path="url(#clip1_270_54996)">
<rect width="9" height="7" fill="#2E42A5"/>
<path d="M-1.00208 6.4999L0.9784 7.3685L9.045 0.944361L10.0897 -0.346405L7.97182 -0.636717L4.68165 2.13163L2.0334 3.99685L-1.00208 6.4999Z" fill="#F7FCFF"/>
<path d="M-0.730957 7.10849L0.278004 7.61255L9.71451 -0.466309H8.29782L-0.730957 7.10849Z" fill="#F50100"/>
<path d="M10.0022 6.4999L8.02172 7.3685L-0.0448761 0.944361L-1.08953 -0.346405L1.0283 -0.636717L4.31847 2.13163L6.96673 3.99685L10.0022 6.4999Z" fill="#F7FCFF"/>
<path d="M9.93457 6.93667L8.92561 7.44073L4.90745 3.98176L3.71615 3.59529L-1.1901 -0.341973H0.226597L5.13009 3.50184L6.43256 3.96525L9.93457 6.93667Z" fill="#F50100"/>
<path fill-rule="evenodd" clip-rule="evenodd" d="M4.99226 0H3.99226V3H0V4H3.99226V7H4.99226V4H9V3H4.99226V0Z" fill="#F50100"/>
<path fill-rule="evenodd" clip-rule="evenodd" d="M3.24226 -0.75H5.74226V2.25H9.75V4.75H5.74226V7.75H3.24226V4.75H-0.75V2.25H3.24226V-0.75ZM3.99226 3H0V4H3.99226V7H4.99226V4H9V3H4.99226V0H3.99226V3Z" fill="#F7FCFF"/>
</g>
<path fill-rule="evenodd" clip-rule="evenodd" d="M10 5H14.8276V9.16667C14.8276 9.16667 14.4228 11 12.4138 11C10.4048 11 10 9.16667 10 9.16667V5Z" fill="#F7FCFF"/>
<mask id="mask0_270_54996" style="mask-type:luminance" maskUnits="userSpaceOnUse" x="10" y="5" width="5" height="6">
<path fill-rule="evenodd" clip-rule="evenodd" d="M10 5H14.8276V9.16667C14.8276 9.16667 14.4228 11 12.4138 11C10.4048 11 10 9.16667 10 9.16667V5Z" fill="white"/>
</mask>
<g mask="url(#mask0_270_54996)">
<rect x="10" y="5" width="4.82759" height="1.5" fill="#C3352C"/>
<rect x="12.069" y="6.33334" width="0.689655" height="4.66667" fill="#C3352C"/>
<path fill-rule="evenodd" clip-rule="evenodd" d="M10 8.16666H14.8276V8.83332H10V8.16666Z" fill="#C3352C"/>
<path fill-rule="evenodd" clip-rule="evenodd" d="M11.2702 10.3685C11.5605 10.7789 11.7971 10.939 11.9643 10.6972C12.0818 10.5273 12.0939 10.3573 11.9265 10.3241C11.8294 10.2006 11.7608 10.1044 11.7217 10.0372L11.7273 10.0319C11.7743 9.98629 11.776 9.92542 11.7668 9.90272C11.7633 9.87166 11.7865 9.82947 11.9374 9.71413C12.074 9.60967 12.1346 9.51131 12.0451 9.40298C11.998 9.34604 11.9557 9.33463 11.8223 9.31402L11.7813 9.30765C11.7418 9.30131 11.7131 9.29502 11.695 9.28958L11.6022 9.11177C11.4084 9.10585 11.257 9.14001 11.0913 9.20995C11.0199 9.24008 10.9718 9.26056 10.9398 9.27423C10.8909 9.29503 10.8791 9.30005 10.8788 9.2993C10.8786 9.29906 10.8797 9.29825 10.881 9.29717C10.8848 9.29414 10.8913 9.28905 10.882 9.28905C10.847 9.28905 10.8092 9.28512 10.7042 9.27179L10.6836 9.26919C10.3819 9.23128 10.3063 9.23246 10.2574 9.37296C10.183 9.5867 10.6235 9.97849 10.8573 10.0256C10.9745 10.0491 11.1147 10.1613 11.2702 10.3685ZM11.5984 10.0743C11.6267 10.0743 11.6486 10.0731 11.6679 10.0679L11.6737 10.0551C11.658 10.0658 11.6344 10.0743 11.5984 10.0743ZM10.497 9.48407C10.4909 9.47683 10.4892 9.46747 10.4935 9.45514C10.4926 9.45768 10.4954 9.46317 10.5013 9.47096C10.5071 9.47862 10.5158 9.48852 10.5269 9.50006C10.5135 9.49622 10.5031 9.49115 10.497 9.48407ZM10.9067 9.78048C10.8228 9.76361 10.6097 9.58625 10.5269 9.50006C10.5486 9.50628 10.5782 9.50931 10.61 9.51256C10.6239 9.51398 10.6382 9.51544 10.6525 9.51724L10.6727 9.5198C10.7907 9.53478 10.8318 9.53905 10.882 9.53905C10.9109 9.53905 10.9049 9.54903 10.9013 9.55508C10.9002 9.55695 10.8993 9.55844 10.8997 9.55915C10.9014 9.562 10.9242 9.55234 11.0381 9.50397L11.0381 9.50397L11.1885 9.44026C11.2771 9.40289 11.3579 9.37868 11.4466 9.36779C11.4564 9.40966 11.4807 9.44752 11.5204 9.47831C11.5737 9.51961 11.6338 9.53697 11.7372 9.55378C11.6087 9.65956 11.5441 9.74807 11.5238 9.83438C11.4081 9.87095 11.4187 10.0013 11.488 10.1315C11.5364 10.2223 11.6278 10.351 11.7638 10.5212L11.8615 10.5682C11.8326 10.5682 11.8165 10.555 11.8043 10.545C11.7889 10.5323 11.7796 10.5247 11.7586 10.555C11.7572 10.5571 11.6663 10.4955 11.4723 10.2213C11.2812 9.96676 11.096 9.81859 10.9067 9.78048ZM11.5164 9.93029C11.5181 9.92883 11.5179 9.92689 11.5177 9.92494L11.5177 9.92488L11.5164 9.93029ZM11.5963 9.82431L11.5888 9.82442L11.5923 9.82468C11.5937 9.82446 11.595 9.82436 11.5963 9.82431ZM11.5984 9.82428C11.5977 9.82428 11.597 9.82429 11.5963 9.82431L11.5984 9.82428Z" fill="#979797"/>
<path d="M10.8275 8.05511C10.8275 8.05511 10.589 7.7251 10.589 7.60745" stroke="#964C36" stroke-width="0.5"/>
<path d="M10.6794 7.77143C10.6794 7.77143 10.3744 7.64117 10.3744 7.77143" stroke="#2A8E51" stroke-width="0.5"/>
<path d="M10.6744 7.63445C10.6744 7.63445 10.4599 7.36154 10.2986 7.36154C10.1374 7.36154 10.1412 7.498 10.1412 7.498" stroke="#2A8E51" stroke-width="0.5"/>
<path d="M10.552 7.36099C10.552 7.36099 10.4563 6.91461 10.303 6.91461C10.1497 6.91461 10.1497 7.1378 10.1497 7.1378" stroke="#2A8E51" stroke-width="0.5"/>
<path d="M10.5907 7.36012C10.5907 7.36012 10.548 6.97757 10.7454 6.97757" stroke="#2A8E51" stroke-width="0.5"/>
<path d="M11.1306 7.99056C11.1306 7.99056 11.0193 7.59886 11.0596 7.48831" stroke="#964C36" stroke-width="0.5"/>
<path d="M11.0884 7.67333C11.0884 7.67333 10.8464 7.44661 10.8018 7.56901" stroke="#2A8E51" stroke-width="0.5"/>
<path d="M11.1306 7.54292C11.1306 7.54292 11.0224 7.2131 10.8708 7.15794C10.7192 7.10278 10.6762 7.23232 10.6762 7.23232" stroke="#2A8E51" stroke-width="0.5"/>
<path d="M11.1091 7.24409C11.1091 7.24409 11.1718 6.79188 11.0277 6.73945C10.8837 6.68701 10.8073 6.89674 10.8073 6.89674" stroke="#2A8E51" stroke-width="0.5"/>
<path d="M11.1457 7.25652C11.1457 7.25652 11.2364 6.88243 11.4219 6.94995" stroke="#2A8E51" stroke-width="0.5"/>
<path d="M11.3761 8.13007C11.3761 8.13007 11.5343 7.75486 11.5078 7.64023" stroke="#964C36" stroke-width="0.35"/>
<path d="M11.4566 7.82033C11.4566 7.82033 11.7245 7.6248 11.7538 7.75172" stroke="#2A8E51" stroke-width="0.35"/>
<path d="M11.4306 7.68575C11.4306 7.68575 11.5783 7.37158 11.7354 7.3353C11.8926 7.29902 11.9195 7.43284 11.9195 7.43284" stroke="#2A8E51" stroke-width="0.35"/>
<path d="M11.4884 7.39175C11.4884 7.39175 11.4813 6.93528 11.6306 6.90079C11.78 6.8663 11.8302 7.08377 11.8302 7.08377" stroke="#2A8E51" stroke-width="0.35"/>
<path d="M11.4505 7.3996C11.4505 7.3996 11.406 7.01725 11.2137 7.06166" stroke="#2A8E51" stroke-width="0.35"/>
<path d="M13.349 7.90094C13.349 7.90094 13.47 7.34421 13.8143 7.34421C14.1586 7.34421 14.3127 7.93241 14.3127 7.93241" stroke="#2A8E51" stroke-width="0.35"/>
<path d="M13.0647 7.52085C13.0647 7.52085 13.2501 7.192 13.862 7.21889C14.474 7.24578 14.5855 7.52085 14.5855 7.52085" stroke="#2A8E51" stroke-width="0.35"/>
<path d="M12.941 7.10268C12.941 7.10268 13.2772 6.68632 13.7483 7.03924L13.9079 7.10268C13.9079 7.10268 14.0679 6.63084 14.841 7.10268" stroke="#2A8E51" stroke-width="0.35"/>
<path d="M13.8692 8.01848C13.8692 8.01848 13.8938 7.49884 13.9762 7.35611" stroke="#964C36" stroke-width="0.5"/>
<path d="M14.5494 9.15694C14.5494 9.15694 14.2403 9.01158 14.1478 9.15694C14.0554 9.30229 12.9414 10.6378 12.9414 10.6378" stroke="#964C36" stroke-width="0.5"/>
<path fill-rule="evenodd" clip-rule="evenodd" d="M13.4822 9.2976L14.1726 9.78022C14.1726 9.78022 14.4903 9.55355 14.3315 9.42557C14.1726 9.2976 13.7397 9.07196 13.7397 9.07196L13.4822 9.2976Z" fill="#FFF203"/>
<path fill-rule="evenodd" clip-rule="evenodd" d="M13.4583 9.32227C13.4583 9.32227 13.2984 9.48971 13.2984 9.61768C13.2984 9.74566 13.1495 10.0887 13.1495 10.0887C13.1495 10.0887 13.5657 10.3449 13.6522 10.1817C13.7386 10.0185 14.2999 10.1162 14.2009 9.86696C14.1019 9.61768 13.4583 9.32227 13.4583 9.32227Z" fill="#00A651"/>
<path fill-rule="evenodd" clip-rule="evenodd" d="M10.5281 5.59113C10.5281 5.59113 10.8968 5.40197 11.0792 5.59113C11.2617 5.7803 11.4112 5.57546 11.4112 5.46135C11.4112 5.34724 11.701 4.9555 11.701 5.27332C11.701 5.59113 11.6108 5.77058 11.8655 5.77058C12.1202 5.77058 13.2671 5.33157 13.5421 5.46135C13.8171 5.59113 14.0275 5.55886 13.9576 5.37264C13.8877 5.18642 13.708 5.07003 13.3621 5.17167C13.0161 5.27332 13.0977 5.37264 12.7987 5.37264C12.4997 5.37264 12.1669 5.27332 12.1669 5.27332C12.1669 5.27332 12.2604 5.10632 12.6018 5.22511C12.9431 5.3439 13.414 5.078 13.5421 5.078C13.6701 5.078 14.0226 5.07003 14.0575 5.17167C14.0925 5.27332 14.3053 5.36659 14.143 5.46135C13.9808 5.55611 13.7133 5.61546 13.8974 5.73687C14.0814 5.85828 14.5047 5.83488 14.5251 5.96116C14.5454 6.08745 14.746 6.27603 14.6655 6.27603C14.585 6.27603 14.4395 6.45388 14.3041 6.39973C14.1686 6.34558 14.1526 6.29803 14.2826 6.25416C14.4125 6.21029 14.4112 6.0258 14.3041 6.0258C14.1969 6.0258 14.2492 6.09044 14.0052 6.0258C13.7613 5.96116 13.4384 5.88931 13.4578 6.0258C13.4772 6.16229 13.6361 6.37181 13.343 6.39973C13.05 6.42765 12.9128 6.53976 12.8558 6.44948C12.7987 6.3592 12.5948 6.2389 12.7552 6.20033C12.9155 6.16175 13.0687 6.33145 13.1264 6.30374C13.1842 6.27603 13.315 6.26061 13.2054 6.1432C13.0958 6.0258 12.9151 5.95668 13.0826 5.8688C13.2502 5.78093 13.1179 5.77912 12.7987 5.96116C12.4795 6.1432 12.3019 6.2979 12.0217 6.27603C11.7414 6.25416 11.6365 6.28367 11.5464 6.25416C11.4563 6.22465 11.0176 6.5802 10.8913 6.48996C10.7649 6.39973 10.3571 6.36511 10.4305 6.25416C10.5039 6.1432 10.6025 6.08608 10.7123 6.1432C10.8221 6.20033 10.9312 6.25745 11.0052 6.20033C11.0792 6.1432 11.293 5.94719 11.2393 5.908C11.1855 5.8688 11.2375 5.73687 10.933 5.73687C10.6285 5.73687 10.5215 5.88391 10.4492 5.79126C10.3769 5.69862 10.5281 5.59113 10.5281 5.59113Z" fill="#FFD100"/>
</g>
</g>
<defs>
<clipPath id="clip0_270_54996">
<rect width="16" height="12" fill="white"/>
</clipPath>
<clipPath id="clip1_270_54996">
<rect width="9" height="7" fill="white"/>
</clipPath>
</defs>
</svg>

<svg width="16" height="12" fill="none" xmlns="http://www.w3.org/2000/svg">
  <mask id="a" maskUnits="userSpaceOnUse" x="0" y="0" width="16" height="12">
    <path fill="#fff" d="M0 0h16v12H0z"/>
  </mask>
  <g mask="url(#a)">
    <path fill-rule="evenodd" clip-rule="evenodd" d="M0 0v12h16V0H0z" fill="#67BFE5"/>
    <mask id="b" maskUnits="userSpaceOnUse" x="0" y="0" width="16" height="12">
      <path fill-rule="evenodd" clip-rule="evenodd" d="M0 0v12h16V0H0z" fill="#fff"/>
    </mask>
    <g mask="url(#b)">
      <mask id="c" maskUnits="userSpaceOnUse" x="0" y="0" width="9" height="7">
        <path fill="#fff" d="M0 0h9v7H0z"/>
      </mask>
      <g mask="url(#c)">
        <path d="M-1.002 6.5l1.98.869L9.045.944l1.045-1.29-2.118-.29-3.29 2.768-2.649 1.865L-1.002 6.5z" fill="#F7FCFF"/>
        <path d="M-.731 7.108l1.009.505 9.437-8.08H8.298L-.731 7.109z" fill="#F50100"/>
        <path d="M10.002 6.5l-1.98.869L-.045.944-1.09-.346l2.118-.29 3.29 2.768 2.649 1.865L10.002 6.5z" fill="#F7FCFF"/>
        <path d="M9.935 6.937l-1.01.504-4.018-3.46-1.19-.386L-1.19-.342H.227L5.13 3.502l1.303.463 3.502 2.972z" fill="#F50100"/>
        <mask id="d" maskUnits="userSpaceOnUse" x="-1" y="-1" width="11" height="9" fill="#000">
          <path fill="#fff" d="M-1-1h11v9H-1z"/>
          <path fill-rule="evenodd" clip-rule="evenodd" d="M4.992 0h-1v3H0v1h3.992v3h1V4H9V3H4.992V0z"/>
        </mask>
        <path fill-rule="evenodd" clip-rule="evenodd" d="M4.992 0h-1v3H0v1h3.992v3h1V4H9V3H4.992V0z" fill="#F50100"/>
        <path d="M3.992 0v-.75h-.75V0h.75zm1 0h.75v-.75h-.75V0zm-1 3v.75h.75V3h-.75zM0 3v-.75h-.75V3H0zm0 1h-.75v.75H0V4zm3.992 0h.75v-.75h-.75V4zm0 3h-.75v.75h.75V7zm1 0v.75h.75V7h-.75zm0-3v-.75h-.75V4h.75zM9 4v.75h.75V4H9zm0-1h.75v-.75H9V3zM4.992 3h-.75v.75h.75V3zm-1-2.25h1v-1.5h-1v1.5zM4.742 3V0h-1.5v3h1.5zM0 3.75h3.992v-1.5H0v1.5zM.75 4V3h-1.5v1h1.5zm3.242-.75H0v1.5h3.992v-1.5zM4.742 7V4h-1.5v3h1.5zm.25-.75h-1v1.5h1v-1.5zM4.242 4v3h1.5V4h-1.5zM9 3.25H4.992v1.5H9v-1.5zM8.25 3v1h1.5V3h-1.5zm-3.258.75H9v-1.5H4.992v1.5zM4.242 0v3h1.5V0h-1.5z" fill="#F7FCFF" mask="url(#d)"/>
      </g>
      <path fill-rule="evenodd" clip-rule="evenodd" d="M10 5h4.828v4.167S14.423 11 12.414 11C10.404 11 10 9.167 10 9.167V5z" fill="#F7FCFF"/>
      <mask id="e" maskUnits="userSpaceOnUse" x="10" y="5" width="5" height="6">
        <path fill-rule="evenodd" clip-rule="evenodd" d="M10 5h4.828v4.167S14.423 11 12.414 11C10.404 11 10 9.167 10 9.167V5z" fill="#fff"/>
      </mask>
      <g mask="url(#e)">
        <path fill="#C3352C" d="M10 5h4.828v1.5H10z"/>
        <path fill="#C3352C" d="M12.069 6.333h.69V11h-.69z"/>
        <path fill-rule="evenodd" clip-rule="evenodd" d="M10 8.167h4.828v.666H10v-.666z" fill="#C3352C"/>
        <path fill-rule="evenodd" clip-rule="evenodd" d="M11.27 10.368c.29.41.527.571.694.33.118-.17.13-.34-.037-.374a2.778 2.778 0 01-.205-.287l.005-.005c.047-.046.049-.107.04-.13-.004-.03.02-.073.17-.188.137-.104.198-.203.108-.311-.047-.057-.09-.068-.223-.089l-.04-.006a.716.716 0 01-.087-.018l-.093-.178a1.145 1.145 0 00-.51.098l-.152.064c-.05.021-.06.026-.061.025l.002-.002c.004-.003.01-.008.001-.008-.035 0-.073-.004-.178-.017l-.02-.003c-.302-.038-.378-.037-.427.104-.074.214.367.605.6.653.118.023.258.135.413.342zm.328-.294a.27.27 0 00.07-.006l.006-.013a.13.13 0 01-.076.02zm-1.101-.59c-.006-.007-.008-.017-.004-.029 0 .003.002.008.008.016a.348.348 0 00.026.03.061.061 0 01-.03-.017zm.41.296c-.084-.016-.297-.194-.38-.28.022.006.051.01.083.013l.043.004.02.003c.118.015.159.02.209.02.029 0 .023.009.02.015-.002.002-.003.003-.002.004a.758.758 0 00.138-.055l.15-.064a.943.943 0 01.259-.072c.01.042.034.08.073.11a.444.444 0 00.217.076c-.128.106-.193.194-.213.28-.116.037-.105.167-.036.298.048.09.14.219.276.39l.098.046a.083.083 0 01-.058-.023c-.015-.013-.024-.02-.045.01-.002.002-.093-.06-.287-.334-.19-.254-.376-.402-.565-.44zm.61.15v-.005.005zm.08-.106h-.008.007zm.001 0h-.002.002z" fill="#979797"/>
        <path d="M10.828 8.055s-.239-.33-.239-.448" stroke="#964C36" stroke-width=".5"/>
        <path d="M10.68 7.771s-.306-.13-.306 0m.3-.137s-.214-.272-.375-.272c-.162 0-.158.136-.158.136m.411-.137s-.096-.446-.249-.446-.153.223-.153.223m.44.222s-.042-.382.155-.382" stroke="#2A8E51" stroke-width=".5"/>
        <path d="M11.13 7.99s-.11-.391-.07-.502" stroke="#964C36" stroke-width=".5"/>
        <path d="M11.088 7.673s-.242-.226-.286-.104m.328-.026s-.108-.33-.26-.385c-.15-.055-.194.074-.194.074m.434.012s.062-.452-.082-.505c-.144-.052-.22.158-.22.158m.338.36s.09-.375.276-.307" stroke="#2A8E51" stroke-width=".5"/>
        <path d="M11.376 8.13s.158-.375.132-.49" stroke="#964C36" stroke-width=".35"/>
        <path d="M11.457 7.82s.268-.195.297-.068m-.324-.066s.148-.314.305-.35c.158-.037.184.097.184.097m-.431-.041s-.007-.457.143-.491c.149-.035.2.183.2.183m-.381.316s-.044-.383-.236-.338m2.135.838s.121-.556.465-.556c.345 0 .499.588.499.588" stroke="#2A8E51" stroke-width=".35"/>
        <path d="M13.065 7.52s.185-.328.797-.301c.612.027.723.302.723.302m-1.644-.418s.336-.417.807-.064l.16.064s.16-.472.933 0" stroke="#2A8E51" stroke-width=".35"/>
        <path d="M13.87 8.018s.024-.52.106-.662m.574 1.801s-.31-.145-.402 0c-.093.145-1.207 1.48-1.207 1.48" stroke="#964C36" stroke-width=".5"/>
        <path fill-rule="evenodd" clip-rule="evenodd" d="M13.482 9.298l.69.482s.318-.226.16-.354c-.16-.128-.592-.354-.592-.354l-.258.226z" fill="#FFF203"/>
        <path fill-rule="evenodd" clip-rule="evenodd" d="M13.458 9.322s-.16.168-.16.296c0 .128-.149.47-.149.47s.417.257.503.094c.087-.164.648-.066.549-.315-.1-.25-.743-.545-.743-.545z" fill="#00A651"/>
        <path fill-rule="evenodd" clip-rule="evenodd" d="M10.528 5.591s.369-.189.551 0c.183.19.332-.016.332-.13s.29-.506.29-.188-.09.498.165.498c.254 0 1.401-.44 1.676-.31.275.13.486.098.416-.088-.07-.187-.25-.303-.596-.201-.346.101-.264.2-.563.2-.3 0-.632-.099-.632-.099s.093-.167.435-.048c.341.119.812-.147.94-.147.128 0 .48-.008.515.094.035.101.248.195.086.29-.162.094-.43.153-.246.275.184.121.608.098.628.224.02.126.221.315.14.315-.08 0-.225.178-.36.124-.136-.054-.152-.102-.022-.146s.128-.228.021-.228-.055.064-.299 0c-.244-.065-.567-.137-.547 0 .02.136.178.346-.115.374-.293.028-.43.14-.487.05-.057-.09-.261-.211-.1-.25.16-.038.313.131.37.104.058-.028.189-.043.08-.16-.11-.118-.29-.187-.123-.275.167-.088.035-.09-.284.092-.32.182-.497.337-.777.315-.28-.022-.386.008-.476-.022-.09-.03-.528.326-.655.236-.126-.09-.534-.125-.46-.236.073-.11.171-.168.281-.11.11.056.22.113.293.056.074-.057.288-.253.234-.292-.054-.04-.002-.171-.306-.171s-.412.147-.484.054c-.072-.092.08-.2.08-.2z" fill="#FFD100"/>
      </g>
    </g>
  </g>
</svg>
